X: 6
T: Scholar, The
C: James Hill
Z: John E Roche
S: https://thesession.org/tunes/94#setting46979
R: reel
M: 4/4
L: 1/8
K: Dmaj
|:defe d2 dB|ABAG FG A2|BG (3GFG FG A2|fgec dcBA|
defe dedB|ABAG FG A2|BGAF DFAd|1 fgec d2 z A:|2 fgec d2||
|:fa|a2 af dfaf|a2 af dfaf|g2 ge cege|g2 ge cege|
a2 af dfaf|a2 af dfaf|gfec dfag|fgec d2:|

%-------------------- TUNE SEPARATOR --------------------%

